dist/img/logo.svg

<svg width="137" height="72" viewBox="0 0 137 72" fill="none" xmlns="http://www.w3.org/2000/svg">
<path d="M4.96094 61.5078H8.10156C8.59375 61.5078 8.84375 61.4688 9.07031 61.375C9.60156 61.1562 10.0078 60.6875 10.0078 60.0312C10.0078 59.3828 9.61719 58.9062 9.07031 58.6797C8.84375 58.5859 8.60156 58.5391 8.09375 58.5391H4.96094V61.5078ZM4.96094 68H3.09375V56.7969H8.32812C9.19531 56.7969 9.76562 56.9453 10.25 57.2266C11.2188 57.75 11.8516 58.7578 11.8516 60.0234C11.8516 61.2578 11.2188 62.2812 10.2422 62.8125C9.75781 63.0859 9.19531 63.2422 8.32812 63.2422H4.96094V68ZM18.8687 56.7969H20.9547L24.0016 62.5391L26.9547 56.7969H29.0406L24.7359 64.8984C24.2047 65.8984 23.8609 66.4922 23.3609 67.0156C22.7828 67.6094 22.0797 68.0234 21.1422 68.0234C20.4781 68.0234 19.8297 67.8125 19.2672 67.4219L20.2203 65.8359C20.5016 66.0391 20.8297 66.1484 21.1656 66.1484C21.8219 66.1484 22.2203 65.7578 22.7281 64.8438C22.7359 64.8125 22.9859 64.3672 22.9859 64.3672L18.8687 56.7969ZM36.6281 56.7969H37.6359L42.4875 62.6328L47.3312 56.7969H48.3469V68H46.4719V60.3516L42.4875 65.2188L38.4953 60.3516V68H36.6281V56.7969ZM56.325 56.7891H65.7938V58.5391H61.9891V68H60.1141V58.5391H56.325V56.7891ZM81.5609 68V60.1797L74.7797 68H73.7641V56.7969H75.6391V64.6094C77.8969 62.0078 80.1547 59.3984 82.4203 56.7969H83.4359V68H81.5609ZM100.773 64.6719C100.773 65.9844 100.117 67.0234 99.1172 67.5703C98.625 67.8438 98.0391 68 97.1641 68H92.0312V56.7969H99.7578V58.5391H93.8984V61.3516H97.1641C98.0391 61.3516 98.625 61.5078 99.1094 61.7891C100.117 62.3281 100.773 63.3984 100.773 64.6719ZM98.9219 64.6719C98.9219 63.9688 98.5 63.4609 97.9375 63.2188C97.7031 63.125 97.4453 63.0781 96.9453 63.0781H93.8984V66.2656H96.9375C97.4531 66.2656 97.7109 66.2188 97.9375 66.1172C98.5078 65.8828 98.9219 65.3672 98.9219 64.6719ZM108.853 56.7969H116.502V58.5312H110.728V60.9922H115.205V62.7109H110.728V66.2656H116.502V68H108.853V56.7969ZM124.097 56.7891H133.566V58.5391H129.761V68H127.886V58.5391H124.097V56.7891Z" fill="white"/>
<mask id="mask0_1_165" style="mask-type:luminance" maskUnits="userSpaceOnUse" x="0" y="0" width="137" height="48">
<path d="M137 0H0V48H137V0Z" fill="white"/>
</mask>
<g mask="url(#mask0_1_165)">
<path d="M0.153499 27.9142C0.397899 27.8562 24.8152 22.0349 43.1998 13.8808C45.2449 12.9738 46.9008 12.4361 48.2956 12.1827C46.7329 13.7573 37.54 17.6827 44.882 18.3783C51.6186 19.0172 40.5214 27.0108 35.4343 29.917C22.0532 34.1597 13.3687 35.8259 13.2126 35.8555L13.3967 36.8371C13.4423 36.8284 14.2201 36.6793 15.6276 36.3679C23.0039 34.7354 47.7648 28.6221 76.1721 14.6517C80.1558 12.6925 83.4072 11.606 86.1436 11.2028C85.3414 15.3186 76.0532 24.42 90.8867 26.7182C104.416 28.8142 77.2846 34.1361 67.1729 36.8458C65.7145 37.2367 64.6097 37.5733 64.0327 37.8377C59.5683 39.8854 111.467 38.0435 134.676 37.9502C135.433 37.9769 136.206 37.9922 137 37.9922V36.9933C116.27 36.9933 108.928 27.5136 103.028 19.8966C96.8975 11.9809 92.0551 5.72774 75.7316 13.7553C71.9386 15.6195 68.1041 17.3982 64.2312 19.0902C60.8086 17.8722 58.7358 16.1204 56.9198 14.5827C53.5385 11.7195 51.0952 9.65046 42.9304 13.2725C24.6028 21.4006 0.243734 27.2086 0 27.2662L0.153499 27.9142Z" fill="#FDFDFD"/>
</g>
</svg>

<svg width="137" height="72" fill="none" xmlns="http://www.w3.org/2000/svg"><path d="M4.96 61.508h3.142c.492 0 .742-.04.968-.133.532-.219.938-.688.938-1.344 0-.648-.39-1.125-.938-1.351-.226-.094-.468-.14-.976-.14H4.96v2.968zm0 6.492H3.095V56.797h5.234c.867 0 1.438.148 1.922.43.969.523 1.602 1.53 1.602 2.796 0 1.235-.633 2.258-1.61 2.79-.484.273-1.047.43-1.914.43H4.961V68zm13.91-11.203h2.086l3.047 5.742 2.953-5.742h2.086l-4.305 8.101c-.531 1-.875 1.594-1.375 2.118-.578.593-1.281 1.007-2.219 1.007a3.28 3.28 0 01-1.875-.601l.953-1.586c.282.203.61.312.946.312.656 0 1.054-.39 1.562-1.304.008-.031.258-.477.258-.477l-4.117-7.57zm17.76 0h1.007l4.851 5.836 4.844-5.836h1.016V68h-1.875v-7.648l-3.985 4.867-3.992-4.867V68h-1.867V56.797zm19.696-.008h9.469v1.75H61.99V68h-1.875v-9.46h-3.789v-1.75zM81.561 68v-7.82L74.78 68h-1.016V56.797h1.875v7.812c2.258-2.601 4.516-5.21 6.781-7.812h1.016V68H81.56zm19.212-3.328c0 1.312-.656 2.351-1.656 2.898-.492.274-1.078.43-1.953.43h-5.133V56.797h7.727v1.742h-5.86v2.813h3.266c.875 0 1.461.156 1.945.437 1.008.54 1.664 1.61 1.664 2.883zm-1.851 0c0-.703-.422-1.211-.984-1.453-.235-.094-.493-.14-.993-.14h-3.047v3.187h3.04c.515 0 .773-.047 1-.149.57-.234.984-.75.984-1.445zm9.931-7.875h7.649v1.734h-5.774v2.461h4.477v1.719h-4.477v3.555h5.774V68h-7.649V56.797zm15.244-.008h9.469v1.75h-3.805V68h-1.875v-9.46h-3.789v-1.75z" fill="#fff"/><mask id="a" style="mask-type:luminance" maskUnits="userSpaceOnUse" x="0" y="0" width="137" height="48"><path d="M137 0H0v48h137V0z" fill="#fff"/></mask><g mask="url(#a)"><path d="M.153 27.914c.245-.058 24.662-5.88 43.047-14.033 2.045-.907 3.7-1.445 5.096-1.698-1.563 1.574-10.756 5.5-3.414 6.195 6.737.64-4.36 8.633-9.448 11.539-13.38 4.243-22.065 5.909-22.221 5.938l.184.982c.045-.009.823-.158 2.23-.47 7.377-1.632 32.138-7.745 60.545-21.715 3.984-1.96 7.235-3.046 9.972-3.45-.803 4.117-10.09 13.218 4.743 15.516 13.529 2.096-13.602 7.418-23.714 10.128-1.459.39-2.563.727-3.14.992-4.465 2.047 47.434.206 70.643.112.757.027 1.53.042 2.324.042v-.999c-20.73 0-28.072-9.48-33.972-17.096-6.13-7.916-10.973-14.17-27.296-6.142a282.248 282.248 0 01-11.5 5.335c-3.423-1.218-5.496-2.97-7.312-4.507-3.382-2.864-5.825-4.933-13.99-1.31C24.603 21.4.244 27.209 0 27.266l.153.648z" fill="#FDFDFD"/></g></svg>
